!!!COM: Albrecht, Charles
!!!CDT: 1817-1895
!!!OTL: National Anthem, Monaco
!!!ENC: Davis, Matthew J.
!!Vocal Line Only
**kern
*clefG2
*k[f#c#g#]
*A:
*M4/4
=1-
1r
=2
1r
=3
1r
=4
1r
=5
1r
=6
1r
=7
1r
=8
1r
==9
2e
4a
8b
=10
2cc#
4.dd
8cc#
=11
2b
4.cc#
8b
=12
2a
4e
4r
=13
2ee
4.ee
8ee
=14
2.ee
4a
=15
4.b
8cc#
4.dd
8cc#
=16
2b
2r
=17
2e
4.a
8b
=18
2cc#
4.dd
8cc#
=19
2b
4.cc#
8b
=20
2b
4a
4r
=21
2ff#
4.ff#
8ff#
=22
2.ee
4ee
=23
4.gg#
8ff#
4.ee
8dd
=24
2cc#
2r
=25
2ff#
4.ff#
8ff#
=26
2.ee
4ee
=27
4.gg#
8ff#
4.dd
8b
=28
[2a
4a]
4r
==|!
*-
